X: 26306
T: Memories Of Highgate
R: hornpipe
M: 4/4
K: Dmajor
DD|F2 F2 FF//G//(3F//E//F// FD|B2 B2 BB/B/ cd/A/|
A2 AF EF/E/ DE|1 D4 D2 DD/D/:|2 D4 D2 DA/A/||
d4 dd//e//(3d//c//d// ef|fA a2 ag f/e/d|
B2 Bc/d/ c2 cd|d4 d4||

